fs/building_bank_toolbox_24_filled.svg

<svg viewBox="0 0 24 24" fill="none" xmlns="http://www.w3.org/2000/svg" height="1em" width="1em">
  <path d="M13.0316 2.33615C12.417 1.88795 11.583 1.88795 10.9684 2.33615L3.54657 7.74857C2.57011 8.46066 3.07318 10.0049 4.28108 10.0068H16V10H19V10.0068H19.7189C20.9268 10.0049 21.4299 8.46066 20.4534 7.74857L13.0316 2.33615ZM12 5.25993C12.5523 5.25993 13 5.70735 13 6.25928C13 6.8112 12.5523 7.25863 12 7.25863C11.4477 7.25863 11 6.8112 11 6.25928C11 5.70735 11.4477 5.25993 12 5.25993ZM11.25 15.409C11.1595 15.5952 11.0915 15.7944 11.0494 16.0029H9.25V11.0062H11.25V15.409ZM14.75 11.4375C13.7257 11.8375 13 12.834 13 14V14.05C12.915 14.0673 12.8316 14.0888 12.75 14.1145V11.0062H14.75V11.4375ZM11 17.0023V20.5H3.75C3.33579 20.5 3 20.1644 3 19.7505V19.2508C3 18.009 4.00736 17.0023 5.25 17.0023H11ZM5.5 16.0029H7.75V11.0062H5.5V16.0029ZM14 15H13.5C12.6716 15 12 15.6716 12 16.5V18H14.5V17.75C14.5 17.3358 14.8358 17 15.25 17C15.6642 17 16 17.3358 16 17.75V18H19V17.75C19 17.3358 19.3358 17 19.75 17C20.1642 17 20.5 17.3358 20.5 17.75V18H23V16.5C23 15.6716 22.3284 15 21.5 15H21V14C21 13.0335 20.2165 12.25 19.25 12.25H15.75C14.7835 12.25 14 13.0335 14 14V15ZM15.5 14C15.5 13.8619 15.6119 13.75 15.75 13.75H19.25C19.3881 13.75 19.5 13.8619 19.5 14V15H15.5V14ZM13.5 23C12.6716 23 12 22.3284 12 21.5V19.5H14.5V20.25C14.5 20.6642 14.8358 21 15.25 21C15.6642 21 16 20.6642 16 20.25V19.5H19V20.25C19 20.6642 19.3358 21 19.75 21C20.1642 21 20.5 20.6642 20.5 20.25V19.5H23V21.5C23 22.3284 22.3284 23 21.5 23H13.5Z" fill="#212121"/>
</svg>

<svg viewBox="0 0 24 24" fill="none" xmlns="http://www.w3.org/2000/svg" height="1em" width="1em">
  <path d="M13.032 2.336a1.751 1.751 0 0 0-2.064 0L3.547 7.75c-.977.712-.474 2.256.734 2.258H16V10h3v.007h.719c1.208-.002 1.71-1.546.734-2.258l-7.421-5.413ZM12 5.26a1 1 0 1 1 0 2 1 1 0 0 1 0-2Zm-.75 10.149c-.09.186-.159.385-.2.594h-1.8v-4.997h2v4.403Zm3.5-3.972A2.751 2.751 0 0 0 13 14v.05a2.475 2.475 0 0 0-.25.064v-3.108h2v.431ZM11 17.003V20.5H3.75a.75.75 0 0 1-.75-.75v-.5a2.25 2.25 0 0 1 2.25-2.248H11Zm-5.5-1h2.25v-4.996H5.5v4.997ZM14 15h-.5a1.5 1.5 0 0 0-1.5 1.5V18h2.5v-.25a.75.75 0 0 1 1.5 0V18h3v-.25a.75.75 0 0 1 1.5 0V18H23v-1.5a1.5 1.5 0 0 0-1.5-1.5H21v-1a1.75 1.75 0 0 0-1.75-1.75h-3.5A1.75 1.75 0 0 0 14 14v1Zm1.5-1a.25.25 0 0 1 .25-.25h3.5a.25.25 0 0 1 .25.25v1h-4v-1Zm-2 9a1.5 1.5 0 0 1-1.5-1.5v-2h2.5v.75a.75.75 0 0 0 1.5 0v-.75h3v.75a.75.75 0 0 0 1.5 0v-.75H23v2a1.5 1.5 0 0 1-1.5 1.5h-8Z" fill="#212121"/>
</svg>
